X:140
T:Divel in Ireland,The. JGi.140
T:Devil in Ireland,The. JGi.140
M:6/8
L:1/8
Q:3/8=120
S:Joshua Gibbons MS,1823,Tealby,Lincs.
R:jig
O:Tealby,Lincolnshire
Z:VMP/R.Greig, 2009
K:C
G|c2d ede|c2AA2c|B2d ded|B2GG2B|c2d ede|ceg c’ac’|agf ede|B2AA2:|
|:a|g2e ede|g2ee2a|g2e ede|c2AA2a|g2e ede|ceg c’bc’|age ede|c2AA2|]

